!!!COM: Fanny Hensel-Mendelssohn
!!!OTL: Schon kehren die Vögel
**kern	**text	**kern	**text	**kern	**text	**kern	**text
*part4	*part4	*part3	*part3	*part2	*part2	*part1	*part1
*staff4	*staff4	*staff3	*staff3	*staff2	*staff2	*staff1	*staff1
*I"Baß	*	*I"Tenor	*	*I"Alt	*	*I"Sopran	*
*clefF4	*	*clefGv2	*	*clefG2	*	*clefG2	*
*k[b-e-]	*	*k[b-e-]	*	*k[b-e-]	*	*k[b-e-]	*
*B-:	*	*B-:	*	*B-:	*	*B-:	*
*M4/4	*	*M4/4	*	*M4/4	*	*M4/4	*
*met(c)	*	*met(c)	*	*met(c)	*	*met(c)	*
=	=	=	=	=	=	=	=
!	!	!	!	!	!	!LO:TX:a:B:t=Allegretto grazioso	!
4B-	Schon	4f	Schon	4b-	Schon	4dd	Schon
=1	=1	=1	=1	=1	=1	=1	=1
2B-	keh-	4f	keh-	2b-	keh-	4dd	keh-
.	.	8d	-ren	.	.	8b-	-ren
.	.	8e-	die	.	.	8cc	die
4B-	-ren	4f	Vö-	4b-	-ren	4dd	Vö-
4B-	die	4d	-gel	4a-X	die	4ff	-gel
=2	=2	=2	=2	=2	=2	=2	=2
4.B-	Vö-	4.d	wie-	4.a-X	Vö-	4.ff	wie-
8B-	-gel	8e-	-der	8g	-gel	8ee-	-der
4B-	ein,	4f	ein,	4f	ein,	4dd	ein,
4B-	es	4f	es	4b-	es	4dd	es
=3	=3	=3	=3	=3	=3	=3	=3
2B-	schal-	4f	schal-	2b-	schal-	4dd	schal-
.	.	8d	-len	.	.	8b-	-len
.	.	8e-	die	.	.	8cc	die
4B-	-len	4f	al-	4b-	-len	4dd	al-
4B-	die	4d	-ten	4a-X	die	4ff	-ten
=4	=4	=4	=4	=4	=4	=4	=4
2E-	Lie-	(4.d	Lie-	(4.b-	Lie-	(4.ff	Lie-
.	.	8e-)	.	8g-X)	.	8ee-)	.
4B-	-der	4f	-der	4f	-der	4dd	-der
4r	.	4r	.	4r	.	4r	.
=5	=5	=5	=5	=5	=5	=5	=5
4.G-X	ach,	4.B-	ach,	4.en	ach,	4dd-X	ach,
.	.	.	.	.	.	4cc	die
8G-	die	8c	.	8e	die	.	.
4G-	fröh-	4d-X	fröh-	4e	fröh-	4b-	fröh-
8G-	-li-	8c	-li-	8e	-li-	8a	-li-
8G-	-che	8B-	-che	8e	-che	8b-	-che
=6	=6	=6	=6	=6	=6	=6	=6
4F	Ju-	4A	Ju-	4cc	Ju-	4cc	Ju-
4F	-gend	4d-X	-gend	4b-	-gend	4een	-gend
2F	mein,	2c	mein,	2a	mein,	2ff	mein,
=7	=7	=7	=7	=7	=7	=7	=7
2D-X	kehrt	2d-X	kehrt	4a-X	kehrt	4ff	kehrt
.	.	.	.	4f	sie	8ee-	sie
.	.	.	.	.	.	8dd-X	wohl
4G-X	sie	4An	sie	4e-	auch	4cc	auch
4G-	noch	4B-	noch	4en	noch	4b-	noch
=8	=8	=8	=8	=8	=8	=8	=8
[2F	wie-	2B-	wie-	2en	wie-	2dd-X	wie-
4F]	.	4A	-der,	4f	-der,	4cc	-der,
4E-	-der,	4r	.	4r	.	4r	.
=9	=9	=9	=9	=9	=9	=9	=9
2D	ach	2B-	ach	2f	ach	4f	ach
.	.	.	.	.	.	8b-L	die
.	.	.	.	.	.	8ddJ	.
2F	die	2Bn	die	2a-X	die	4ff	fröh-
.	.	.	.	.	.	8ee-	-li-
.	.	.	.	.	.	8dd	-che
=10	=10	=10	=10	=10	=10	=10	=10
4.E-	Ju-	4.Bn	Ju-	4.g	Ju-	4.gg	Ju-
8E-	-gend	8c	-gend	8g	-gend	8ee-	-gend
4E-	mein,	4c	mein,	4g	mein,	4cc	mein,
4r	.	4r	.	4r	.	4r	.
=11	=11	=11	=11	=11	=11	=11	=11
2G	kehrt	4d-X	kehrt	2en	kehrt	4cc	kehrt
.	.	8c	sie	.	.	8a	sie
.	.	8B-	wohl	.	.	8b-	wohl
4.F	sie	4.B-	auch	4.e-X	sie	4.cc	auch
8F	noch	8A	noch	8e-	noch	8dd	noch
=12	=12	=12	=12	=12	=12	=12	=12
4F	wie-	4A	wie-	4e-	wie-	4cc	wie-
4BB-	-der?	4B-	-der?	4d	-der?	4b-	-der?
4r	.	4r	.	4r	.	4r	.
4B-	Ich	4d	Ich	4f	Ich	4dd	Ich
=13	=13	=13	=13	=13	=13	=13	=13
4A	weiß	4c	weiß	4f#X	weiß	4dd	weiß
8A	nicht,	8c	nicht,	8f#	nicht,	8ee-	nicht,
8A	was	8c	was	8f#	was	8dd	was
4.A-X	ich	4.c	ich	4.f#	ich	4.dd	ich
8A-	so	8c	so	8f#	so	8dd	so
=14	=14	=14	=14	=14	=14	=14	=14
4G	trau-	4B-	trau-	4g	trau-	4dd	trau-
4G	-rig	4B-	-rig	4g	-rig	8ee-L	-rig
.	.	.	.	.	.	8ddJ	.
4G	bin,	4B-	bin,	4g	bin,	4dd	bin,
4r	.	4r	.	4r	.	4r	.
=15	=15	=15	=15	=15	=15	=15	=15
4G	Wol-	4Bn	Wol-	4g	Wol-	4ff	Wol-
8G	-ken	8c	-ken	8g	-ken	8ee-	-ken
8G	im	8d	im	8g	im	8dd	im
4C	Herb-	4c	Herb-	4g	Herb-	4ee-	Herb-
4C	-ste	8dL	-ste	4g	-ste	8ddL	-ste
.	.	8e-J	.	.	.	8ccJ	.
=16	=16	=16	=16	=16	=16	=16	=16
2D	ja-	2d	ja-	2g	ja-	2b-	ja-
4D	-gen,	4d	-gen,	4f#X	-gen,	4a	-gen,
4r	.	4r	.	4d	die	4d	die
=17	=17	=17	=17	=17	=17	=17	=17
4G	Vö-	4B-	Vö-	4d	Vö-	4b-	Vö-
8G	-gel	8B-	-gel	8d	-gel	8cc	-gel
8G	ziehn	8B-	ziehn	8d	ziehn	8b-	ziehn
4G	ü-	4B-	ü-	4d	ü-	4b-	ü-
8G	-ber	8B-	-ber	8d	-ber	8cc	-ber
8G	die	8B-	die	8d	die	8b-	die
=18	=18	=18	=18	=18	=18	=18	=18
4.BB-	Wal-	4.A-X	Wal-	4.d	Wal-	4.ff	Wal-
8BB-	-der	8A-	-der	8d	-der	8dd	-der
4BB-	hin	4F	hin	4d	hin	4b-	hin
4D	wie	4B-	wie	4f	wie	4a-X	wie
=19	=19	=19	=19	=19	=19	=19	=19
4E-	in	4B-	in	4e-	in	4g	in
4D	den	4B-	den	4e-	den	4g	den
4C	Früh-	4c	Früh-	4g	Früh-	4ee-	Früh-
4C	-lings-	8dL	-lings-	4g	-lings-	8ddL	-lings-
.	.	8e-J	.	.	.	8ccJ	.
=20	=20	=20	=20	=20	=20	=20	=20
2D	-ta-	2d	-ta-	2g	-ta-	2b-	-ta-
4D	-gen,	4d	-gen,	4f#X	-gen,	4a	-gen,
4r	.	4r	.	4d	die	4d	die
=21	=21	=21	=21	=21	=21	=21	=21
4G	Vö-	4B-	Vö-	4d	Vö-	4b-	Vö-
8G	-gel	8B-	-gel	8d	-gel	8a	-gel
8G	ziehn	8B-	ziehn	8d	ziehn	8g	ziehn
4F	ü-	4B-	ü-	4d	ü-	4g	ü-
8F	-ber	8B-	-ber	8d	-ber	8f#X	-ber
8F	die	8B-	die	8d	die	8g	die
=22	=22	=22	=22	=22	=22	=22	=22
4.E-	Wäl-	4.G	Wäl-	4.c	Wäl-	4.b-	Wäl-
8E-	-der	8G	-der	8c	-der	8a	-der
4E-	hin	4G	hin	4c#X	hin	4g	hin
4r	.	4r	.	4r	.	4r	.
=23	=23	=23	=23	=23	=23	=23	=23
4D	wie	4B-	wie	4d	wie	4dd	wie
8D	in	8B-	in	8d	in	8g	in
8D	den	8B-	den	8d	den	8a	den
4.D	Früh-	4.d	Früh-	4.g	Früh-	4.b-	Früh-
8D	-lings-	8c	-lings-	8f#X	-lings-	8a	-lings-
=24	=24	=24	=24	=24	=24	=24	=24
4F	-ta-	4A	-ta-	4e-	-ta-	4cc	-ta-
4BB-	-gen.	4B-	-gen.	4d	-gen.	4b-	-gen.
4r	.	4r	.	4r	.	4r	.
4B-	Schon	4f	Schon	4b-	Schon	4dd	Schon
=25	=25	=25	=25	=25	=25	=25	=25
2B-	keh-	4f	keh-	4b-	keh-	4dd	keh-
.	.	8d	-ren	8b-	-ren	8b-	-ren
.	.	8e-	die	8b-	die	8cc	die
4B-	-ren	4f	Vö-	4b-	Vö-	4dd	Vö-
4B-	die	4d	-gel	4a-X	-gel	4ff	-gel
=26	=26	=26	=26	=26	=26	=26	=26
4.B-	Vö-	4.d	wie-	4.a-X	wie-	4.ff	wie-
8B-	-gel	8e-	-der	8g	-der	8ee-	-der
4B-	ein,	4f	ein,	4f	ein,	4dd	ein,
4B-	es	4f	es	4b-	es	4dd	es
=27	=27	=27	=27	=27	=27	=27	=27
2B-	schal-	4f	schal-	4b-	schal-	4dd	schal-
.	.	8d	-len	8b-	-len	8b-	-len
.	.	8e-	die	8b-	die	8cc	die
4B-	-al-	4f	al-	4b-	al-	4dd	al-
4B-	-ten	4d	-ten	4a-X	-ten	4ff	-ten
=28	=28	=28	=28	=28	=28	=28	=28
2E-	Lie-	(4.d	Lie-	(4.a-X	Lie-	(4.ff	Lie-
.	.	8e-)	.	8g-X)	.	8ee-)	.
4BB-	-der	4f	-der	4f	-der	4dd	-der
4r	.	4r	.	4r	.	4r	.
=29	=29	=29	=29	=29	=29	=29	=29
4.G-X	ach,	4.B-	ach,	4.en	ach,	4.dd-X	ach,
8G-	die	8c	die	8e	die	8cc	die
4G-	fröh-	4d-X	fröh-	4e	fröh-	4b-	fröh-
8G-	-li-	8c	-li-	8e	-li-	8a	-li-
8G-	-che	8B-	-che	8e	-che	8b-	-che
=30	=30	=30	=30	=30	=30	=30	=30
4F	Ju-	4A	Ju-	4cc	Ju-	4cc	Ju-
4F	-gend	4d-X	-gend	4b-	-gend	4een	-gend
2F	mein,	2c	mein,	2a	mein,	2ff	mein,
=31	=31	=31	=31	=31	=31	=31	=31
2D-X	kehrt	2d-X	kehrt	4a-X	kehrt	4ff	kehrt
.	.	.	.	4f	sie	8ee-X	sie
.	.	.	.	.	.	8dd-X	wohl
4G-X	auch	4An	auch	4e-	auch	4cc	auch
4G-	noch	4B-	noch	4en	noch	4b-	noch
=32	=32	=32	=32	=32	=32	=32	=32
2.F	wie-	2B-	wie-	2en	wie-	2dd-X	wie-
.	.	4A	-der,	4f	-der,	4cc	-der,
4E-	-der,	4r	.	4r	.	4r	.
=33	=33	=33	=33	=33	=33	=33	=33
2D	ach,	2B-	ach,	2f	ach,	4f	ach
.	.	.	.	.	.	8b-L	die
.	.	.	.	.	.	8ddJ	.
2F	die	2Bn	die	2a-X	die	4ff	fröh-
.	.	.	.	.	.	8ee-L	-li-
.	.	.	.	.	.	8ddJ	-che
=34	=34	=34	=34	=34	=34	=34	=34
4.E-	Ju-	4.Bn	Ju-	4.g	Ju-	4.gg	Ju-
8E-	-gend	8B	-gend	8g	-gend	8ee-	-gend
4E-	mein,	4c	mein,	4g	mein,	4cc	mein,
4r	.	4r	.	4r	.	4r	.
=35	=35	=35	=35	=35	=35	=35	=35
4G	kehrt	4d-X	kehrt	4en	kehrt	4b-	kehrt
8G	sie	8c	sie	8e	sie	8a	sie
8G	wohl	8B-	wohl	8e	wohl	8b-	wohl
4.F	auch	4.B-	auch	4.e-X	auch	4.cc	auch
8F	noch	8B-	noch	8d	noch	8dd	noch
=36	=36	=36	=36	=36	=36	=36	=36
2F	wie-	2A	wie-	2e-	wie-	2cc	wie-
4BB-	-der,	4B-	-der,	4d	-der,	4b-	-der,
4r	.	4r	.	4r	.	4r	.
=37	=37	=37	=37	=37	=37	=37	=37
4.B-	Ju-	4.c#X	Ju-	4.en	Ju-	4.a	Ju-
8B-	-gend-	8c#	-gend-	8e	-gend-	8g	-gend-
4B-	-zeit,	4d	-zeit,	4f	-zeit,	4f	-zeit,
4r	.	4r	.	4r	.	4r	.
=38	=38	=38	=38	=38	=38	=38	=38
4.B-	kehrst	4.c#X	kehrst	4.en	kehrst	4.b-	kehrst
8B-	du	8c#	du	8e	du	8g	du
4B-	wohl	4d	wohl	4f	wohl	4f	wohl
4r	.	4r	.	4r	.	4r	.
=39	=39	=39	=39	=39	=39	=39	=39
1BB-	wie-	4.d	auch	4.b-	auch	4.ff	auch
.	.	8f	noch	8b-	noch	8dd	noch
.	.	(4.f	wie-	(4.b-	wie-	(4.dd	wie-
.	.	8d)	.	8f)	.	8b-)	.
=40	=40	=40	=40	=40	=40	=40	=40
1BB-	-der?	1d	-der?	1f	-der?	1b-	-der?
==	==	==	==	==	==	==	==
*-	*-	*-	*-	*-	*-	*-	*-
!!!system-decoration: [(s1,s2,s3,s4)]